!!!!SEGMENT: pl-kk--kk-i-360--002_anonim--quoniam-rex-noster.krn
!!!cenid: 17xx:1958
!!!COM: Anonim
!!!COM-rismID: pe30004985
!!!CDT:
!!!CNT:
!!!OTL: Quoniam rex noster
!!!PDT:
!!!AGN: Sacred
!!!YEC: Copyright 2022 Narodowy Instytut Fryderyka Chopina (https://polishscores.org)
!!!YEM: License CC-BY-4.0 (https://creativecommons.org/licenses/by/4.0)
!!!SMS-siglum: PL-Kk
!!!SMS-shelfmark: Kk.I.360
!!!SMS-shelfwork: 002 W
!!!SMS-variant:
!!!SMS-altvar:
!!!NIFC-rismSourceID: 1001143308
!!!NIFC-rismChildID: 1001143828
!!!NIFC-islandoraID: pl-kk:5970
!!!URL-pdf-islandora: https://repozytorium.nifc.pl/islandora/object/pl-kk%3A5970/datastream/PDF/view
!!!URL-scan: https://polish.musicsources.pl/pl/lokalizacje/galeria/rekopisy/5975 @EN{Scan on Polish Music Sources Website} @PL{Skany w portalu Dziedzictwo Muzyki Polskiej w otwartym dostępie}
!!!IIIF:
!!!ONB-nifc: UWAGA: utwory w zbiorze: 1. Rorate coeli, 2. Quoniam rex noster, 3. Sanguine proprio, 4. Per merita Sancti Adalberti
!!!AIN: 2 alto 1 empty 2 tenor
!!!key:
**kern	**text	**kern	**text	**kern	**text	**kern	**text	**kern	**text
*part5	*	*part4	*	*part3	*	*part2	*	*part1	*
*staff5	*	*staff4	*	*staff3	*	*staff2	*	*staff1	*
*Iempty	*	*Itenor	*	*Itenor	*	*Ialto	*	*Ialto	*
*I"[Basso]	*	*I"[Tenore II]	*	*I"[Tenore I]	*	*I"[Alto II]	*	*I"[Alto I]	*
*I'B	*	*I'T II	*	*I'T I	*	*I'A II	*	*I'A I	*
*clefF4	*	*clefC4	*	*clefC4	*	*clefC3	*	*clefC2	*
*k[]	*	*k[]	*	*k[]	*	*k[]	*	*k[]	*
*C:	*	*C:	*	*C:	*	*C:	*	*C:	*
*M2/1	*	*M2/1	*	*M2/1	*	*M2/1	*	*M2/1	*
=1-	=1-	=1-	=1-	=1-	=1-	=1-	=1-	=1-	=1-
1E	Quo-	0r	.	1E	Quo-	2.B/	Quo-	1g	Quo-
.	.	.	.	.	.	4c\	-ni-	.	.
1D	-ni-	.	.	1F	.	2d\	-am	2a\	.
.	.	.	.	.	.	2d\	rex	2a\	-ni-
=2-	=2-	=2-	=2-	=2-	=2-	=2-	=2-	=2-	=2-
!	!	!LO:TX:a:t=P:problem=kreska pseudotaktowa	!	!	!	!	!	!	!
1E	-am	1r	.	0G	.	1B	nos-	1g	-am
1C	rex	1E	Quo-	.	.	2e\	-ter	2.cc\	rex
.	.	.	.	.	.	2.e\	quo-	.	.
.	.	.	.	.	.	.	.	4b\	.
=3-	=3-	=3-	=3-	=3-	=3-	=3-	=3-	=3-	=3-
*	*	*	*	*lig	*	*	*	*	*
!	!	!LO:TX:a:t=P:problem=kreska pseudotaktowa	!	!	!	!	!	!	!
1D	noſ-	1F	.	1F	.	.	.	4a\	.
.	.	.	.	.	.	8d\L	.	4g\	.
.	.	.	.	.	.	8c\J	.	.	.
.	.	.	.	.	.	2d\	-ni-	2a\	.
2C/	.	2G/	.	1E	.	2e\	-am	1e	quo-
*	*	*	*	*Xlig	*	*	*	*	*
2C/	-ter	2G/	-ni-	.	.	2c/	rex	.	.
=4-	=4-	=4-	=4-	=4-	=4-	=4-	=4-	=4-	=4-
*	*ij	*	*	*lig	*	*	*	*	*
!	!	!LO:TX:a:t=P:problem=kreska pseudotaktowa	!	!	!	!	!	!	!
2.F\	Quo-	1F	-am	1D	-ni-	1d	noſ-	2f\	.
.	.	.	.	.	.	.	.	2f\	-ni-
8E\L	.	.	.	.	.	.	.	.	.
8D\J	.	.	.	.	.	.	.	.	.
2C/	-ni-	2E/	rex	1E	.	2c\	-ter	2g\	-am
*	*	*	*	*Xlig	*	*	*	*	*
2.AA/	-am	2e\	noſ-	.	.	1a	no-	2.c/	rex
=5-	=5-	=5-	=5-	=5-	=5-	=5-	=5-	=5-	=5-
.	.	2e\	-ter	1E,<	-am	.	.	.	.
4BB/	.	.	.	.	.	.	.	4d/	.
!	!	!LO:TX:a:t=P:problem=kreska pseudotaktowa	!	!	!	!	!	!	!
4C/	.	2c\	.	.	.	4g\	.	4e/	.
4D/	.	.	.	.	.	4f\	.	4f/	.
*custos:C	*	*	*	*	*	*	*	*	*
2E\	.	2.B\	Spe-	1E	rex	2.e\	.	2g\	.
!LO:LB:g=original	!	!	!	!	!	!	!	!	!
1C	rex	.	.	.	.	.	.	2.e/	quo-
!	!	!LO:TX:a:t=P:problem=kreska pseudotaktowa	!	!	!	!	!	!	!
.	.	4A\	.	.	.	4d\	.	.	.
=6-	=6-	=6-	=6-	=6-	=6-	=6-	=6-	=6-	=6-
.	.	2G/	-rat	1G	nos-	2c/	.	.	.
*	*	*	*	*	*	*	*	*custos:g	*
.	.	.	.	.	.	.	.	4f\	.
!	!	!LO:TX:a:t=P:problem=kreska pseudotaktowa	!	!	!	!LO:LB:g=original	!	!LO:LB:g=original	!
2BB/	no-	2d\	in	.	.	2d\	.	1g	.
*	*	*	*	*lig	*	*	*	*	*
2C/	.	2c\	te	1G	-ter	2e\	.	.	.
2GG/	.	2.d\	Do-	.	.	2d\	.	2g\	-ni-
=7-	=7-	=7-	=7-	=7-	=7-	=7-	=7-	=7-	=7-
2D/	.	.	.	1A	.	2f\	.	2f\	-am
*	*	*	*	*Xlig	*	*	*	*	*
!	!	!LO:SIC:s:v:c#	!	!	!	!	!	!	!
.	.	8c\L	.	.	.	.	.	.	.
.	.	8B\J	.	.	.	.	.	.	.
*	*	*custos:d	*	*	*	*	*	*	*
!	!	!LO:TX:t=P:problem=# above	!	!	!	!	!	!	!
2AA/	.	2c#X\	-mi-	.	.	2e\	.	2.a\	rex
!	!	!LO:LB:g=original	!	!	!	!	!	!	!
*	*	*	*	*lig	*	*	*	*	*
2D/	-ſter	2d\	-ne	1A	Spe-	2d\	-ster	.	.
*	*Xij	*	*	*	*	*	*	*	*
.	.	.	.	.	.	.	.	4g\	.
1F	Spe-	1A	Spe-	.	.	4c/	Spe-	1f\	noſ-
.	.	.	.	.	.	4B/	.	.	.
=8-	=8-	=8-	=8-	=8-	=8-	=8-	=8-	=8-	=8-
.	.	.	.	1c	.	4c/	.	.	.
*	*	*	*	*Xlig	*	*	*	*	*
.	.	.	.	.	.	4d/	.	.	.
!	!	!LO:TX:a:t=P:problem=kreska pseudotaktowa	!	!	!	!	!	!	!
1C	.	2cny\	.	.	.	2e\	-rat	4e/	-per
.	.	.	.	.	.	.	.	4d/	.
.	.	2C/	.	1G	-rat	2c/	.	4e\	.
.	.	.	.	.	.	.	.	4f\	spe-
1GG	-rat	1D	-rat	.	.	2.d\	in	4g\	.
.	.	.	.	.	.	.	.	4f\	.
=9-	=9-	=9-	=9-	=9-	=9-	=9-	=9-	=9-	=9-
*	*	*	*	*custos:E	*	*	*	*	*
.	.	.	.	1G	in	.	.	4g\	.
.	.	.	.	.	.	4c/	.	4a\	.
!	!	!LO:TX:a:t=P:problem=kreska pseudotaktowa	!	!	!	!	!	!	!
2GG/	in	2G/	in	.	.	2d\	.	2b\	-rat
!	!	!	!	!LO:LB:g=original	!	!	!	!	!
*	*	*	*	*lig	*	*	*	*	*
!	!	!LO:TX:a:t=P:problem=kreska pseudotaktowa	!	!	!	!	!	!	!
2C/	te	1G	te	1E	te	2g\	te	2.cc\	.
2E/	Do-	.	.	.	.	2.g\	.	.	.
.	.	.	.	.	.	.	.	4b\	.
=10-	=10-	=10-	=10-	=10-	=10-	=10-	=10-	=10-	=10-
1D	.	2d\	Do-	1F	.	.	.	4a\	.
*	*	*	*	*Xlig	*	*	*	*	*
.	.	.	.	.	.	8f\L	.	4g\	.
.	.	.	.	.	.	8e\J	.	.	.
.	.	2.d\	.	.	.	2f\	.	2a\	.
*	*	*	*	*lig	*	*	*	*	*
2GG/	.	.	.	1G	.	2d\	.	2g\	in
.	.	8c\L	.	.	.	.	.	.	.
.	.	8B\J	.	.	.	.	.	.	.
2C/	.	2c\	-mi-	.	.	2e\	.	2.e/	te
=11-	=11-	=11-	=11-	=11-	=11-	=11-	=11-	=11-	=11-
!	!	!LO:TX:a:t=P:problem=kreska pseudotaktowa	!	!	!	!	!	!	!
[2D/	-mi-	0A	-ne	1F	.	2A/	.	.	.
*	*	*	*	*Xlig	*	*	*	*	*
.	.	.	.	.	.	.	.	8d/L	.
.	.	.	.	.	.	.	.	8c/J	.
2D/]	.	.	.	.	.	2.d/	Do-	2d/	.
1AA	-ne	.	.	1E,<	.	.	.	1e	.
.	.	.	.	.	.	8c/L	.	.	.
.	.	.	.	.	.	8B/J	.	.	.
!	!	!	!	!	!	!LO:LB:g=original	!	!	!
.	.	.	.	.	.	2c#X/	-mi-	.	.
=12-	=12-	=12-	=12-	=12-	=12-	=12-	=12-	=12-	=12-
2D/	in	2r	.	1D	Do-	0d	-ne	2.f\	Do-
2.F\	te	2.A/	in-	.	.	.	.	.	.
*	*	*	*	*	*	*	*	*custos:f	*
.	.	.	.	.	.	.	.	4e\	.
!	!	!	!	!	!	!	!	!LO:LB:g=original	!
*	*	*	*	*lig	*	*	*	*	*
.	.	.	.	1D	-mi-	.	.	4f\	.
4E\	.	4A/	-ve-	.	.	.	.	4g\	.
!LO:LB:g=original	!	!LO:TX:a:t=P:problem=kreska pseudotaktowa	!	!	!	!	!	!	!
2D/	Do-	2A/	-ni-	.	.	.	.	4a\	.
.	.	.	.	.	.	.	.	4f\	.
=13-	=13-	=13-	=13-	=13-	=13-	=13-	=13-	=13-	=13-
2C/	.	1c	-a-	1E	.	2r	.	2g\	.
*	*	*	*	*Xlig	*	*	*	*	*
4AA/	.	.	.	.	.	1cny	in-	2a\	.
4BB/	.	.	.	.	.	.	.	.	.
4C/	.	1G	-tur	1E	-ne	.	.	2g\	-mi-
4D/	.	.	.	.	.	.	.	.	.
4E/	.	.	.	.	.	2B/	-ve-	2e/	-ne
4C/	.	.	.	.	.	.	.	.	.
=14-	=14-	=14-	=14-	=14-	=14-	=14-	=14-	=14-	=14-
!	!	!LO:TX:a:t=P:problem=kreska pseudotaktowa	!	!	!	!	!	!	!
4D/	.	1D	ma-	1F	in-	2d\	-ni-	1a	in-
4E/	.	.	.	.	.	.	.	.	.
2F\	.	.	.	.	.	4A/	-a-	.	.
.	.	.	.	.	.	4B/	.	.	.
2C/	-mi-	1E	-nus	1E	-ue-	4c/	.	2g\	-ve-
.	.	.	.	.	.	4d/	.	.	.
2AA/	-ne	.	.	.	.	4e\	.	2a\	-ni-
.	.	.	.	.	.	4c\	.	.	.
=15-	=15-	=15-	=15-	=15-	=15-	=15-	=15-	=15-	=15-
1D	in-	2.F/	tu-	1D	-ni-	1d	-tur	1f	-a-
*	*	*custos:A	*	*	*	*	*	*	*
.	.	4G/	.	.	.	.	.	.	.
!LO:TX:b:t=P:problem=# below	!	!LO:LB:g=original	!	!	!	!	!	!	!
2C#X/	-ve-	2A/	.	1E	-a-	2rA	.	1e	.
2C#/	-ni-	2A/	-a	.	.	2A/	ma-	.	.
=16-	=16-	=16-	=16-	=16-	=16-	=16-	=16-	=16-	=16-
1D	-a-	1A	ma-	1F	-tur	2.d\	.	1d	-tur
.	.	.	.	.	.	4c/	.	.	.
1GG	-tur	2G/	-n(us)	1G	ma-	4B/	.	2r	.
.	.	.	.	.	.	4A/	.	.	.
.	.	2D/	tu-	.	.	1B	.	1g	in-
=17-	=17-	=17-	=17-	=17-	=17-	=17-	=17-	=17-	=17-
!	!	!LO:TX:a:t=P:problem=kreska pseudotaktowa	!	!	!	!	!	!	!
2r	.	0d	-a	1G	-nus	.	.	.	.
*	*ij	*	*	*	*	*	*	*	*
2G\	in-	.	.	.	.	2B/	-nus	2d/	-ne-
*	*	*	*	*lig	*	*	*	*	*
2G\	-ve-	.	.	1A	.	2A/	tu-	2a\	.
2F#X\	-ni-	.	.	.	.	1d	-a	2a\	-ma-
=18-	=18-	=18-	=18-	=18-	=18-	=18-	=18-	=18-	=18-
1G	-a-	1re	.	1G	.	.	.	2.b-X\	-tur
*	*	*	*	*Xlig	*	*	*	*	*
.	.	.	.	.	.	2d\	o-	.	.
.	.	.	.	.	.	.	.	4a\	.
1Cny	-tur	2r	.	1E	tu-	2.c/	.	2g\	ma-
*	*Xij	*	*	*	*	*	*	*	*
.	.	1c	o-	.	.	.	.	2g\	-n(us)
.	.	.	.	.	.	4d/	.	.	.
!LO:PB:g=original	!	!	!	!	!	!LO:LB:g=original	!	!	!
=19-	=19-	=19-	=19-	=19-	=19-	=19-	=19-	=19-	=19-
2AA/	ma-	.	.	1E	-a	4e\	.	2a\	tu-
.	.	.	.	.	.	4f\	.	.	.
!	!	!LO:TX:a:t=P:problem=kreska pseudotaktowa	!	!	!	!	!	!	!
2.E\	-nus	2B\	-mni-	.	.	2g\	-mni-	2.g\	.
!	!	!	!	!LO:LB:g=original	!	!	!	!	!
.	.	2.e\	-bus	1G	o-	1g	-b(us)	.	.
4D/	.	.	.	.	.	.	.	4f\	.
!	!	!	!	!	!	!	!	!LO:LB:g=original	!
4C/	tu-	.	.	.	.	.	.	2e/	.
4BB/	.	4d\	.	.	.	.	.	.	.
=20-	=20-	=20-	=20-	=20-	=20-	=20-	=20-	=20-	=20-
*	*	*	*	*lig	*	*	*	*	*
4AA/	-a	4c\	.	1A	-mni-	2re	.	1cc	-a
4GG/	.	4B\	.	.	.	.	.	.	.
*	*	*	*	*	*	*	*ij	*	*
2.AA/	o-	2.c\	i-	.	.	2.e\	ma-	.	.
.	.	.	.	1c	.	.	.	2a\	.
*	*	*	*	*Xlig	*	*	*	*	*
4BB/	-mni-	4d\	-ni-	.	.	4d\	.	.	.
!	!	!LO:TX:a:t=P:problem=kreska pseudotaktowa	!	!	!	!	!	!	!
2C/	-b(us)	2e\	mi-	.	.	2.c/	-nus	2g\	.
=21-	=21-	=21-	=21-	=21-	=21-	=21-	=21-	=21-	=21-
*	*ij	*	*	*	*	*	*	*	*
2.FF/	o-	4A/	-cis	1c	.	.	.	2.a\	o-
.	.	4G/	.	.	.	4B/	.	.	.
.	.	2.A/	i-	.	.	2.A/	o-	.	.
4GG/	-mni-	.	.	.	.	.	.	4bny\	-mni-
1AA	-b(us)	.	.	1c,<	-b(us)	.	.	2cc\	-b(us)
.	.	4B\	-ni-	.	.	4G/	.	.	.
!	!	!LO:TX:a:t=P:problem=kreska pseudotaktowa	!	!	!	!	!	!	!
.	.	2c\	-mi-	.	.	2.A/	.	4f\	.
.	.	.	.	.	.	.	.	4g\	.
=22-	=22-	=22-	=22-	=22-	=22-	=22-	=22-	=22-	=22-
2r	.	2F/	-cis	1c	i-	.	.	4a\	.
.	.	.	.	.	.	4B/	.	4f\	.
4AA/	o-	1A	e-	.	.	2c/	-mni-	2.a\	i-
4GG/	.	.	.	.	.	.	.	.	.
2.AA/	-mni-	.	.	1c	-ni-	1A	-b(us)	.	.
*	*	*	*	*	*	*	*Xij	*	*
.	.	.	.	.	.	.	.	4b\	-ni-
.	.	2A/	-ig	.	.	.	.	2cc\	-mi-
4BB/	.	.	.	.	.	.	.	.	.
!	!	!LO:LB:g=original	!	!	!	!	!	!	!
=23-	=23-	=23-	=23-	=23-	=23-	=23-	=23-	=23-	=23-
*	*	*	*	*lig	*	*	*	*	*
2C/	-b(us)	2G/	e-	1c	-mi-	2rA	.	2g\	-cis
2FF/	o-	2c\	.	.	.	2A/	i-	2a\	e-
!	!	!LO:TX:a:t=P:problem=kreska pseudotaktowa	!	!	!	!	!	!	!
1GG	-mni-	1G	-ig	1B	.	2.B/	-ni-	2g\	.
*	*	*	*	*Xlig	*	*	*	*	*
.	.	.	.	.	.	.	.	2.g\	.
.	.	.	.	.	.	4c\	.	.	.
=24-	=24-	=24-	=24-	=24-	=24-	=24-	=24-	=24-	=24-
*	*	*	*	*lig	*	*	*	*	*
1D	-b(us)	2rE	.	1A	-cis	2d\	-ni-	.	.
*	*Xij	*	*	*	*	*	*	*	*
.	.	.	.	.	.	.	.	8f\L	.
.	.	.	.	.	.	.	.	8e\J	.
.	.	2D/	et	.	.	2d\	-cis	2f\	-ig
!	!	!LO:TX:a:t=P:problem=kreska pseudotaktowa	!	!	!	!	!	!	!
1GG	i-	1D	dex-	1G	.	1B	e-	1g	et
*	*	*	*	*Xlig	*	*	*	*	*
=25-	=25-	=25-	=25-	=25-	=25-	=25-	=25-	=25-	=25-
1D	-ni-	2.d\	.	1A	e-	1A	-ig	4f\	dex-
.	.	.	.	.	.	.	.	4g\	.
.	.	.	.	.	.	.	.	4a\	.
.	.	4c\	.	.	.	.	.	4f\	.
!LO:LB:g=original	!	!	!	!	!	!	!	!	!
1E	-mi-	4B\	.	1G	-ig	2.e\	et	1g	te-
.	.	4A\	.	.	.	.	.	.	.
.	.	4c\	-te-	.	.	.	.	.	.
!	!	!LO:TX:a:t=P:problem=kreska pseudotaktowa	!	!	!	!	!	!	!
.	.	4B\	.	.	.	4d\	.	.	.
=26-	=26-	=26-	=26-	=26-	=26-	=26-	=26-	=26-	=26-
1.Fny	-cis	2A/	-ra	1A	et	4c/	.	1c	-ra
.	.	.	.	.	.	4B/	.	.	.
!	!	!	!	!	!	!LO:LB:g=original	!	!	!
.	.	2.c\	tu-	.	.	2.A/	dex-	.	.
!	!	!	!	!	!	!	!	!LO:PB:g=original	!
.	.	.	.	1c	dex-	.	.	1.cc	tu-
.	.	4d\	.	.	.	4B/	.	.	.
1C	e-	1e	-a	.	.	4c\	.	.	.
.	.	.	.	.	.	4d\	.	.	.
=27-	=27-	=27-	=27-	=27-	=27-	=27-	=27-	=27-	=27-
.	.	.	.	1G	-te-	4e\	.	.	.
.	.	.	.	.	.	4f\	.	.	.
1GG	-ius	4d\	.	.	.	1g	.	2b\	.
!	!	!LO:TX:a:t=P:problem=kreska pseudotaktowa	!	!	!	!	!	!	!
.	.	4c\	.	.	.	.	.	.	.
.	.	1d	dex-	1G	-ra	.	.	1b	-a
2GG/	et	.	.	.	.	2d\	-te-	.	.
=28-	=28-	=28-	=28-	=28-	=28-	=28-	=28-	=28-	=28-
!	!	!LO:TX:a:t=P:problem=kreska pseudotaktowa	!	!	!	!	!	!	!
1D	.	1A	-te-	1F	tu-	2f\	-ra	1a	.
.	.	.	.	.	.	2.d\	tu-	.	.
*	*	*	*	*lig	*	*	*	*	*
2D/	Dex-	2A/	-ra	1F	-a	.	.	2a\	con-
.	.	.	.	.	.	4e\	.	.	.
2D/	-te-	1A	tu-	.	.	4f\	.	2a\	-te-
.	.	.	.	.	.	4d\	.	.	.
=29-	=29-	=29-	=29-	=29-	=29-	=29-	=29-	=29-	=29-
*	*	*	*	*custos:D	*	*	*	*	*
!LO:TX:a:t=P:problem=# między nutami	!	!	!	!	!	!	!	!	!
2C#X/	.	.	.	1E	.	2e\	.	2a\	-rat
*	*	*	*	*Xlig	*	*	*	*	*
!	!	!LO:TX:a:t=P:problem=kreska pseudotaktowa	!	!	!	!	!	!	!
2C#/	-ra	2A/	-a	.	.	2e\	-a	2.a\	con-
!	!	!	!	!LO:LB:g=original	!	!	!	!	!
1D	tu-	2.A/	con-	1D	con-	1f	con-	.	.
.	.	.	.	.	.	.	.	4a\	-te-
.	.	.	.	.	.	.	.	2a\	-rat
.	.	4A/	-te-	.	.	.	.	.	.
=30-	=30-	=30-	=30-	=30-	=30-	=30-	=30-	=30-	=30-
*	*	*	*	*lig	*	*	*	*	*
1AA	-a	2A/	-rat	1E	-te-	1e	-te-	1cc	e-
!	!	!LO:LB:g=original	!	!	!	!	!	!	!
.	.	1c	e-	.	.	.	.	.	.
1Cny	con-	.	.	1G	.	2e\	-rat	2g\	-os
*	*	*	*	*Xlig	*	*	*ij	*	*
.	.	1G	-os	.	.	2e\	con-	2.g\	e-
=31-	=31-	=31-	=31-	=31-	=31-	=31-	=31-	=31-	=31-
*	*	*	*	*lig	*	*	*	*	*
2GG/	-te-	.	.	1G	-rat	2d/	-te-	.	.
.	.	.	.	.	.	.	.	4f\	.
!	!	!LO:TX:a:t=P:problem=kreska pseudotaktowa	!	!	!	!	!	!	!
2C/	-rat	2G/	con-	.	.	2c/	.	2.e/	.
1D	e-	4D/	.	1F	.	1A	rat	.	.
*	*	*	*	*Xlig	*	*	*Xij	*	*
.	.	4E/	.	.	.	.	.	4d/	.
.	.	4F/	.	.	.	.	.	4d/	.
!	!	!LO:TX:a:t=P:problem=kreska pseudotaktowa	!	!	!	!	!	!	!
.	.	4G/	.	.	.	.	.	8c/L	.
.	.	.	.	.	.	.	.	8d/J	.
=32-	=32-	=32-	=32-	=32-	=32-	=32-	=32-	=32-	=32-
2AA/	-os	2A/	.	1E	e-	1.c	-e-	[0el;;	-os
*	*ij	*	*	*	*	*	*	*	*
2.C/	con-	1G	-te-	.	.	.	.	.	.
.	.	.	.	[1El;;	-os	.	.	.	.
4D\	.	.	.	.	.	.	.	.	.
*	*	*	*	*	*	*custos:A	*	*	*
2E\	.	1E	-rat	.	.	2B/	.	.	.
!	!	!	!	!	!	!LO:PB:g=original	!	!	!
=33-	=33-	=33-	=33-	=33-	=33-	=33-	=33-	=33-	=33-
2AA/	.	.	.	0E_	.	2A/	.	0e_	.
1C	te-	1c	e-	.	.	2.G/	.	.	.
.	.	.	.	.	.	4A/	.	.	.
!	!	!LO:TX:a:t=P:problem=kreska pseudotaktowa	!	!	!	!	!	!	!
2GG#X/	.	2B\	.	.	.	2B/	.	.	.
=34-	=34-	=34-	=34-	=34-	=34-	=34-	=34-	=34-	=34-
1AA	-rat	1.A	.	0E_	.	1c	.	0e_	.
!LO:LB:g=original	!	!	!	!	!	!	!	!	!
1AA	e-	.	.	.	.	[1Bl;;	-os.	.	.
!	!	!LO:SIC:s:v=G#	!	!	!	!	!	!	!
.	.	4G/	.	.	.	.	.	.	.
!	!	!LO:SIC:s:v=F#	!	!	!	!	!	!	!
.	.	4F/	.	.	.	.	.	.	.
=35-	=35-	=35-	=35-	=35-	=35-	=35-	=35-	=35-	=35-
!LO:SIC:v:n=1:s=0E:n=2:s=0EE	!	!	!	!	!	!	!	!	!
0D 0DD;;	-os	0G#Xl;;	-os.	0E]	.	0B]	.	0e]	.
*	*Xij	*	*	*	*	*	*	*	*
==	==	==	==	==	==	==	==	==	==
*-	*-	*-	*-	*-	*-	*-	*-	*-	*-
!!!system-decoration: [s1,s2,s3,s4,s5]
!!!RDF**kern: < = below
!!!RDF**kern: l = terminal long
!!!ENC: Marta Lawrence
!!!END: 2021-02-28
!!!ENC: Marcin Jachim
!!!END: 2021-02-06
